picto/gondola-lift-left.svg

<svg class="color-immutable" width="24" height="24" viewBox="0 0 24 24" fill="none" xmlns="http://www.w3.org/2000/svg"><g clip-path="url(#a)"><path d="M0 22.5v-21C0 .675.675 0 1.5 0h21c.825 0 1.5.675 1.5 1.5v21c0 .825-.675 1.5-1.5 1.5h-21C.675 24 0 23.325 0 22.5Z" fill="#2D327D"/><path d="M18.713 5.619 21 6v.684l-2.287-.381v-.684ZM17.288 5.381v.685L3 3.685V3l14.288 2.381Z" fill="#fff"/><path d="M15.751 11.251a.751.751 0 0 0-.751.75v4.351c0 .098.009.197.03.293l.75 3.752c.07.352.377.603.735.603h2.97a.749.749 0 0 0 .736-.602l.751-3.752c.018-.097.028-.195.028-.293v-4.351a.75.75 0 0 0-.75-.75h-1.913V4.726h-.675v6.525h-1.911Zm0 4.875v-3.75c0-.207.167-.375.374-.375h3.75c.206 0 .374.168.374.375v3.75a.374.374 0 0 1-.374.374h-3.75a.373.373 0 0 1-.374-.374Z" fill="#fff"/></g><defs><clipPath id="a"><path fill="#fff" d="M0 0h24v24H0z"/></clipPath></defs></svg>

<svg class="color-immutable" width="24" height="24" viewBox="0 0 24 24" fill="none" xmlns="http://www.w3.org/2000/svg"><path d="M0 22.5V1.5C0 0.675 0.675 0 1.5 0H22.5C23.325 0 24 0.675 24 1.5V22.5C24 23.325 23.325 24 22.5 24H1.5C0.675 24 0 23.325 0 22.5Z" fill="#2D327D"/><path d="M18.713 5.619L21 6V6.684L18.713 6.303V5.619Z" fill="white"/><path d="M17.288 5.381V6.066L3 3.685V3L17.288 5.381Z" fill="white"/><path d="M15.751 11.251C15.337 11.251 15 11.587 15 12.001V16.352C15 16.45 15.009 16.549 15.03 16.645L15.78 20.397C15.85 20.749 16.157 21 16.515 21H19.485C19.843 21 20.151 20.749 20.221 20.398L20.972 16.646C20.99 16.549 21 16.451 21 16.353V12.002C21 11.588 20.665 11.252 20.25 11.252H18.337V4.726H17.662V11.251H15.751ZM15.751 16.126V12.376C15.751 12.169 15.918 12.001 16.125 12.001H19.875C20.081 12.001 20.249 12.169 20.249 12.376V16.126C20.249 16.333 20.081 16.5 19.875 16.5H16.125C15.918 16.5 15.751 16.333 15.751 16.126Z" fill="white"/></svg>
